X: 1
T:Nach Fhreagar Thu, Cairistiona
M:3/4
L:1/8
Q:80
C:Trad. Arr. D. Williams
S:Slow Air
K:HP
|: | {gcd}c3{GdG}c2e|
{gfg}f2e{gcd}c3/2B/2{G}A|
{gBd}B3{gAGAG}A3|  !
{gfg}f2e{gef}e3/2f/2e|
{g}e/2c2e/2{ag}a3|
{cd}c3B/2c/2{G}A2|  !
{gBd}B3{gAGAG}A3|
{gfg}f2e{gef}e3/2f/2e:|
{gcd}c2{d}c{e}c2e|  !
{gfg}f2e{gcd}c3/2B/2{G}A|
{gBd}B3{gAGAG}A3|
{gfg}f2e{gef}e3/2f/2e|  !
{g}e/2c2e/2{ag}a3|
{cd}c3B/2c/2{G}A2|
{gfg}f3{gef}e3|  !
{gfg}f2e{gef}e3/2f/2e|
{G}A3{GAG}A3:|
